_inc/systems/logos/switch.svg

<?xml version="1.0" encoding="utf-8"?>
<svg version="1.0" preserveAspectRatio="xMidYMid meet" viewBox="0 0 264 74" xmlns="http://www.w3.org/2000/svg">
  <g transform="matrix(0.245281, 0, 0, 0.246616, -47.369041, -16.523285)">
    <path d="M 257.348 67.994 C 227.464 73.337 203.421 95.454 195.842 124.53 C 193.108 135.029 192.922 141.18 193.232 222.629 C 193.419 297.43 193.481 299.17 194.723 304.947 C 201.619 336.073 223.737 358.253 255.173 365.584 C 259.274 366.516 264.492 366.702 298.103 366.888 C 332.894 367.137 336.498 367.075 337.43 366.143 C 338.362 365.211 338.424 353.22 338.424 217.286 C 338.424 116.515 338.237 69.05 337.802 68.18 C 337.181 67.062 336.125 67 299.718 67.062 C 270.146 67.124 261.262 67.311 257.348 67.994 Z M 313.573 217.1 L 313.573 342.969 L 288.287 342.659 C 264.989 342.41 262.504 342.286 257.845 341.106 C 237.84 335.949 222.991 320.541 218.829 300.474 C 217.462 294.199 217.462 139.627 218.767 133.476 C 222.494 116.018 234.609 101.543 250.949 95.019 C 259.149 91.727 262.939 91.354 289.53 91.292 L 313.573 91.23 L 313.573 217.1 Z" style="fill: rgb(255, 255, 255);"/>
    <path d="M 262.691 129.189 C 258.777 129.935 252.812 132.917 249.644 135.713 C 243.12 141.366 239.89 149.381 240.387 158.824 C 240.635 163.732 240.946 165.037 242.934 169.013 C 245.854 175.039 250.265 179.45 256.291 182.432 C 260.454 184.483 261.51 184.731 266.915 184.918 C 271.823 185.104 273.563 184.918 276.856 183.799 C 290.337 179.264 298.476 166.155 296.177 152.736 C 293.506 136.769 278.347 126.083 262.691 129.189 Z" style="fill: rgb(255, 255, 255);"/>
    <path d="M 368.68 67.435 C 368.431 67.621 368.245 134.967 368.245 217.1 C 368.245 352.599 368.307 366.329 369.239 366.702 C 370.916 367.323 419.127 367.075 425.091 366.454 C 450.315 363.596 472.557 348.25 484.671 325.45 C 486.225 322.53 488.275 317.621 489.331 314.577 C 493.245 302.897 493.121 306.004 493.121 216.727 C 493.121 145.467 492.996 134.843 492.127 130.308 C 485.976 97.939 461.312 73.523 428.881 67.932 C 424.532 67.186 417.822 67 396.202 67 C 381.292 67 368.866 67.186 368.68 67.435 Z M 435.032 202.748 C 444.724 205.295 452.676 212.688 455.906 222.132 C 457.957 227.972 457.895 236.545 455.844 241.888 C 452.055 251.704 444.599 258.601 435.032 261.148 C 419.5 265.186 402.974 255.805 398.439 240.397 C 397.072 235.676 397.134 227.723 398.687 222.877 C 403.347 207.656 419.5 198.71 435.032 202.748 Z" style="fill: rgb(255, 255, 255);"/>
  </g>
  <g transform="matrix(0.245281, 0, 0, 0.246616, -47.369041, -17.198753)">
    <path d="M 1228.236 115.588 C 1212.736 120.688 1203.536 135.588 1206.136 151.788 C 1207.736 162.188 1213.736 170.388 1222.936 175.088 C 1235.436 181.288 1248.736 179.688 1258.736 170.688 C 1266.236 163.888 1269.436 156.788 1269.436 146.688 C 1269.436 137.188 1266.636 130.088 1260.336 123.788 C 1252.436 115.888 1238.236 112.288 1228.236 115.588 Z M 1245.936 130.188 C 1251.936 133.288 1255.236 138.288 1255.736 145.088 C 1256.336 153.988 1252.536 160.388 1244.636 163.688 C 1231.236 169.288 1216.036 156.388 1219.836 142.488 C 1221.436 136.288 1224.136 132.788 1229.136 130.288 C 1234.536 127.688 1240.836 127.588 1245.936 130.188 Z" style="fill: rgb(255, 255, 255);"/>
    <path d="M 557.936 146.688 L 557.936 177.288 L 564.236 176.988 L 570.436 176.688 L 570.936 157.388 L 571.436 138.088 L 585.936 157.588 L 600.436 177.188 L 606.436 176.988 L 612.436 176.688 L 612.436 146.688 L 612.436 116.688 L 606.236 116.388 L 599.936 116.088 L 599.936 135.788 L 599.936 155.588 L 585.236 135.888 L 570.436 116.188 L 564.236 116.188 L 557.936 116.188 L 557.936 146.688 Z" style="fill: rgb(255, 255, 255);"/>
    <path d="M 657.936 146.688 L 657.936 177.188 L 664.436 177.188 L 670.936 177.188 L 670.936 146.688 L 670.936 116.188 L 664.436 116.188 L 657.936 116.188 L 657.936 146.688 Z" style="fill: rgb(255, 255, 255);"/>
    <path d="M 716.436 117.488 C 716.136 118.188 716.036 131.788 716.136 147.688 L 716.436 176.688 L 722.736 176.988 L 728.936 177.288 L 728.936 157.088 L 728.936 136.788 L 743.936 156.988 L 758.936 177.188 L 764.936 177.188 L 770.936 177.188 L 770.936 146.688 L 770.936 116.188 L 764.436 116.188 L 757.936 116.188 L 757.736 135.388 L 757.436 154.588 L 743.036 135.388 L 728.736 116.188 L 722.836 116.188 C 718.936 116.188 716.736 116.588 716.436 117.488 Z" style="fill: rgb(255, 255, 255);"/>
    <path d="M 813.636 116.888 C 813.236 117.188 812.936 120.188 812.936 123.388 L 812.936 129.188 L 822.936 129.188 L 832.936 129.188 L 832.936 153.188 L 832.936 177.188 L 839.436 177.188 L 845.936 177.188 L 845.936 153.188 L 845.936 129.188 L 855.436 129.188 L 864.936 129.188 L 864.936 122.688 L 864.936 116.188 L 839.636 116.188 C 825.636 116.188 813.936 116.488 813.636 116.888 Z" style="fill: rgb(255, 255, 255);"/>
    <path d="M 908.936 146.688 L 908.936 177.188 L 932.436 177.188 L 955.936 177.188 L 955.936 171.188 L 955.936 165.188 L 938.436 165.188 L 920.936 165.188 L 920.936 158.188 L 920.936 151.188 L 936.936 151.188 L 952.936 151.188 L 952.936 145.688 L 952.936 140.188 L 936.936 140.188 L 920.936 140.188 L 920.936 134.188 L 920.936 128.188 L 938.236 127.988 L 955.436 127.688 L 955.736 121.888 L 956.036 116.188 L 932.436 116.188 L 908.936 116.188 L 908.936 146.688 Z" style="fill: rgb(255, 255, 255);"/>
    <path d="M 1005.436 117.488 C 1005.136 118.188 1005.036 131.788 1005.136 147.688 L 1005.436 176.688 L 1011.736 176.988 L 1017.936 177.288 L 1017.936 156.988 L 1017.936 136.788 L 1032.936 156.988 L 1047.936 177.188 L 1053.936 177.188 L 1059.936 177.188 L 1059.936 146.688 L 1059.936 116.188 L 1053.436 116.188 L 1046.936 116.188 L 1046.736 135.388 L 1046.436 154.588 L 1032.036 135.388 L 1017.736 116.188 L 1011.836 116.188 C 1007.936 116.188 1005.736 116.588 1005.436 117.488 Z" style="fill: rgb(255, 255, 255);"/>
    <path d="M 1110.936 146.588 L 1110.936 177.188 L 1124.236 177.188 C 1139.636 177.188 1146.936 175.688 1153.536 171.088 C 1173.036 157.688 1170.036 128.988 1148.136 118.888 C 1144.036 116.988 1141.236 116.688 1127.236 116.388 L 1110.936 115.988 L 1110.936 146.588 Z M 1143.636 131.088 C 1152.036 134.988 1155.636 145.688 1151.436 154.588 C 1148.236 161.188 1141.736 164.188 1130.336 164.188 L 1122.936 164.188 L 1122.936 146.688 L 1122.936 129.188 L 1131.236 129.188 C 1137.136 129.188 1140.636 129.788 1143.636 131.088 Z" style="fill: rgb(255, 255, 255);"/>
    <path d="M 1080.736 204.288 C 1066.836 206.088 1054.436 212.588 1044.236 223.488 C 1021.936 247.488 1022.636 283.988 1045.936 307.188 C 1054.536 315.888 1062.336 320.388 1073.536 323.188 C 1091.936 327.888 1110.536 324.188 1125.736 312.688 C 1131.636 308.288 1139.336 299.688 1138.736 298.188 C 1138.536 297.788 1134.436 294.088 1129.536 289.788 L 1120.736 282.088 L 1118.036 285.588 C 1105.136 302.488 1079.036 304.288 1063.936 289.188 C 1061.736 286.988 1058.736 282.888 1057.236 279.988 C 1054.736 275.188 1054.436 273.688 1054.436 264.688 C 1054.436 256.088 1054.736 253.988 1056.936 249.688 C 1064.336 234.388 1082.636 226.088 1098.536 230.688 C 1105.936 232.788 1112.936 237.188 1117.336 242.488 L 1120.736 246.588 L 1125.136 242.988 C 1127.536 241.088 1131.736 237.388 1134.436 234.988 L 1139.436 230.488 L 1135.536 225.688 C 1122.536 209.888 1101.536 201.688 1080.736 204.288 Z" style="fill: rgb(255, 255, 255);"/>
    <path d="M 586.136 208.188 C 562.336 214.488 550.036 230.388 555.336 248.388 C 559.136 261.688 571.736 268.188 605.236 274.188 C 627.736 278.188 634.336 281.488 634.336 288.588 C 634.336 293.488 631.436 297.088 625.136 299.988 C 619.736 302.488 618.536 302.688 604.936 302.688 C 588.836 302.688 582.536 301.388 570.636 295.988 C 566.936 294.288 563.736 293.088 563.536 293.288 C 562.336 294.788 552.836 312.488 553.136 312.688 C 554.136 313.788 570.136 319.588 576.736 321.388 C 587.736 324.288 611.236 324.988 623.236 322.788 C 645.636 318.588 656.736 308.288 657.736 290.988 C 658.536 276.688 654.536 269.288 642.236 262.888 C 633.436 258.288 625.836 256.088 606.436 252.188 C 589.536 248.888 584.736 247.288 581.236 243.988 C 578.136 241.088 578.136 235.888 581.336 232.688 C 588.536 225.488 614.336 225.188 634.336 232.188 C 637.636 233.288 640.636 233.888 641.036 233.488 C 641.736 232.688 648.936 215.788 648.936 214.788 C 648.936 213.888 633.636 209.388 625.036 207.788 C 613.436 205.588 595.436 205.788 586.136 208.188 Z" style="fill: rgb(255, 255, 255);"/>
    <path d="M 671.336 208.888 C 671.636 209.888 678.636 234.788 686.936 264.188 C 695.236 293.588 702.236 318.488 702.536 319.388 C 703.036 320.988 704.636 321.188 716.936 321.188 L 730.836 321.188 L 731.936 317.388 C 741.836 281.588 751.836 247.988 752.336 249.188 C 752.636 249.988 757.336 266.388 762.736 285.688 L 772.536 320.688 L 786.536 320.988 L 800.536 321.288 L 816.436 265.488 C 825.136 234.788 832.436 209.088 832.736 208.388 C 833.036 207.488 830.236 207.188 820.536 207.188 L 808.036 207.188 L 806.636 211.888 C 805.836 214.588 801.036 232.588 795.936 251.888 C 790.736 271.288 786.336 287.188 785.936 287.188 C 785.636 287.188 780.936 271.988 775.536 253.388 C 770.136 234.888 764.836 216.888 763.736 213.388 L 761.836 207.088 L 751.636 207.388 L 741.436 207.688 L 729.736 247.688 C 723.336 269.688 718.036 287.888 717.936 288.188 C 717.836 288.488 713.336 272.288 708.036 252.188 C 702.636 232.088 697.636 213.788 697.036 211.388 L 695.836 207.188 L 683.336 207.188 C 671.836 207.188 670.836 207.288 671.336 208.888 Z" style="fill: rgb(255, 255, 255);"/>
    <path d="M 860.936 264.188 L 860.936 321.188 L 873.936 321.188 L 886.936 321.188 L 886.736 264.388 L 886.436 207.688 L 873.736 207.388 L 860.936 207.088 L 860.936 264.188 Z" style="fill: rgb(255, 255, 255);"/>
    <path d="M 913.936 219.688 L 913.936 232.188 L 931.936 232.188 L 949.936 232.188 L 949.936 276.688 L 949.936 321.188 L 962.436 321.188 L 974.936 321.188 L 974.936 276.688 L 974.936 232.188 L 992.736 231.988 L 1010.436 231.688 L 1010.436 219.688 L 1010.436 207.688 L 962.236 207.388 L 913.936 207.188 L 913.936 219.688 Z" style="fill: rgb(255, 255, 255);"/>
    <path d="M 1164.936 264.188 L 1164.936 321.188 L 1176.936 321.188 L 1188.936 321.188 L 1188.936 298.688 L 1188.936 276.188 L 1215.436 276.188 L 1241.936 276.188 L 1241.936 298.688 L 1241.936 321.188 L 1253.936 321.188 L 1265.936 321.188 L 1265.736 264.388 L 1265.436 207.688 L 1253.736 207.388 L 1241.936 207.088 L 1241.936 229.688 L 1241.936 252.188 L 1215.436 252.188 L 1188.936 252.188 L 1188.936 229.688 L 1188.936 207.188 L 1176.936 207.188 L 1164.936 207.188 L 1164.936 264.188 Z" style="fill: rgb(255, 255, 255);"/>
  </g>
</svg>

<svg xmlns="http://www.w3.org/2000/svg" viewBox="0 0 264 74"><path d="M257.35 68c-29.89 5.34-53.93 27.45-61.5 56.53-2.74 10.5-2.93 16.65-2.62 98.1.19 74.8.25 76.54 1.5 82.32 6.89 31.12 29 53.3 60.44 60.63 4.1.94 9.32 1.12 42.93 1.3 34.8.26 38.4.2 39.33-.74s1-12.92 1-148.85c0-100.77-.2-148.24-.63-149.11-.62-1.12-1.68-1.18-38.08-1.12-29.57.06-38.46.25-42.37.93m56.22 149.1v125.87l-25.28-.31c-23.3-.25-25.79-.37-30.44-1.55-20.01-5.16-34.86-20.57-39.02-40.64-1.37-6.27-1.37-160.84-.06-167a53.4 53.4 0 0 1 32.18-38.45c8.2-3.3 11.99-3.67 38.58-3.73l24.04-.06z" style="fill:#fff" transform="matrix(.24528 0 0 .24662 -47.37 -16.52)"/><path d="M262.7 129.19c-3.92.75-9.89 3.73-13.06 6.52-6.52 5.66-9.75 13.67-9.25 23.11.25 4.91.56 6.22 2.54 10.2a28.3 28.3 0 0 0 13.36 13.41c4.16 2.05 5.22 2.3 10.63 2.49 4.9.18 6.64 0 9.94-1.12 13.48-4.54 21.62-17.65 19.32-31.06-2.67-15.97-17.83-26.66-33.49-23.55m105.99-61.75c-.25.18-.44 67.53-.44 149.66 0 135.5.07 149.23 1 149.6 1.68.62 49.89.38 55.85-.25 25.23-2.85 47.47-18.2 59.58-41a92 92 0 0 0 4.66-10.87c3.92-11.68 3.8-8.58 3.8-97.85 0-71.26-.13-81.89-1-86.42-6.15-32.37-30.82-56.79-63.25-62.38-4.35-.74-11.06-.93-32.68-.93-14.9 0-27.33.19-27.52.44m66.35 135.3a30.4 30.4 0 0 1 20.88 19.4c2.05 5.83 1.98 14.4-.07 19.75-3.78 9.81-11.24 16.71-20.8 19.26-15.54 4.04-32.07-5.34-36.6-20.75-1.37-4.72-1.3-12.68.25-17.52 4.66-15.22 20.81-24.17 36.34-20.13" style="fill:#fff" transform="matrix(.24528 0 0 .24662 -47.37 -16.52)"/><path d="M1228.24 115.59c-15.5 5.1-24.7 20-22.1 36.2 1.6 10.4 7.6 18.6 16.8 23.3 12.5 6.2 25.8 4.6 35.8-4.4 7.5-6.8 10.7-13.9 10.7-24 0-9.5-2.8-16.6-9.1-22.9-7.9-7.9-22.1-11.5-32.1-8.2m17.7 14.6c6 3.1 9.3 8.1 9.8 14.9.6 8.9-3.2 15.3-11.1 18.6-13.4 5.6-28.6-7.3-24.8-21.2 1.6-6.2 4.3-9.7 9.3-12.2 5.4-2.6 11.7-2.7 16.8-.1m-688 16.5v30.6l6.3-.3 6.2-.3.5-19.3.5-19.3 14.5 19.5 14.5 19.6 6-.2 6-.3v-60l-6.2-.3-6.3-.3v39.5l-14.7-19.7-14.8-19.7h-12.5zm100 0v30.5h13v-61h-13zm58.5-29.2c-.3.7-.4 14.3-.3 30.2l.3 29 6.3.3 6.2.3v-40.5l15 20.2 15 20.2h12v-61h-13l-.2 19.2-.3 19.2-14.4-19.2-14.3-19.2h-5.9c-3.9 0-6.1.4-6.4 1.3m97.2-.6c-.4.3-.7 3.3-.7 6.5v5.8h20v48h13v-48h19v-13h-25.3c-14 0-25.7.3-26 .7m95.3 29.8v30.5h47v-12h-35v-14h32v-11h-32v-12l17.3-.2 17.2-.3.3-5.8.3-5.7h-47.1zm96.5-29.2c-.3.7-.4 14.3-.3 30.2l.3 29 6.3.3 6.2.3v-40.5l15 20.2 15 20.2h12v-61h-13l-.2 19.2-.3 19.2-14.4-19.2-14.3-19.2h-5.9c-3.9 0-6.1.4-6.4 1.3m105.5 29.1v30.6h13.3c15.4 0 22.7-1.5 29.3-6.1 19.5-13.4 16.5-42.1-5.4-52.2-4.1-1.9-6.9-2.2-20.9-2.5l-16.3-.4zm32.7-15.5c8.4 3.9 12 14.6 7.8 23.5-3.2 6.6-9.7 9.6-21.1 9.6h-7.4v-35h8.3c5.9 0 9.4.6 12.4 1.9m-62.9 73.2c-13.9 1.8-26.3 8.3-36.5 19.2-22.3 24-21.6 60.5 1.7 83.7 8.6 8.7 16.4 13.2 27.6 16 18.4 4.7 37 1 52.2-10.5 5.9-4.4 13.6-13 13-14.5-.2-.4-4.3-4.1-9.2-8.4l-8.8-7.7-2.7 3.5c-12.9 16.9-39 18.7-54.1 3.6-2.2-2.2-5.2-6.3-6.7-9.2-2.5-4.8-2.8-6.3-2.8-15.3 0-8.6.3-10.7 2.5-15 7.4-15.3 25.7-23.6 41.6-19 7.4 2.1 14.4 6.5 18.8 11.8l3.4 4.1 4.4-3.6c2.4-1.9 6.6-5.6 9.3-8l5-4.5-3.9-4.8c-13-15.8-34-24-54.8-21.4m-494.6 3.9c-23.8 6.3-36.1 22.2-30.8 40.2 3.8 13.3 16.4 19.8 49.9 25.8 22.5 4 29.1 7.3 29.1 14.4 0 4.9-2.9 8.5-9.2 11.4-5.4 2.5-6.6 2.7-20.2 2.7-16.1 0-22.4-1.3-34.3-6.7-3.7-1.7-6.9-2.9-7.1-2.7-1.2 1.5-10.7 19.2-10.4 19.4 1 1.1 17 6.9 23.6 8.7 11 2.9 34.5 3.6 46.5 1.4 22.4-4.2 33.5-14.5 34.5-31.8.8-14.3-3.2-21.7-15.5-28.1-8.8-4.6-16.4-6.8-35.8-10.7-16.9-3.3-21.7-4.9-25.2-8.2-3.1-2.9-3.1-8.1.1-11.3 7.2-7.2 33-7.5 53-.5 3.3 1.1 6.3 1.7 6.7 1.3.7-.8 7.9-17.7 7.9-18.7 0-.9-15.3-5.4-23.9-7-11.6-2.2-29.6-2-38.9.4m85.2.7c.3 1 7.3 25.9 15.6 55.3s15.3 54.3 15.6 55.2c.5 1.6 2.1 1.8 14.4 1.8h13.9l1.1-3.8c9.9-35.8 19.9-69.4 20.4-68.2.3.8 5 17.2 10.4 36.5l9.8 35 14 .3 14 .3 15.9-55.8c8.7-30.7 16-56.4 16.3-57.1.3-.9-2.5-1.2-12.2-1.2h-12.5l-1.4 4.7c-.8 2.7-5.6 20.7-10.7 40-5.2 19.4-9.6 35.3-10 35.3-.3 0-5-15.2-10.4-33.8-5.4-18.5-10.7-36.5-11.8-40l-1.9-6.3-10.2.3-10.2.3-11.7 40c-6.4 22-11.7 40.2-11.8 40.5s-4.6-15.9-9.9-36c-5.4-20.1-10.4-38.4-11-40.8l-1.2-4.2h-12.5c-11.5 0-12.5.1-12 1.7m189.6 55.3v57h26l-.2-56.8-.3-56.7-12.7-.3-12.8-.3zm53-44.5v12.5h36v89h25v-89l17.8-.2 17.7-.3v-24l-48.2-.3-48.3-.2zm251 44.5v57h24v-45h53v45h24l-.2-56.8-.3-56.7-11.7-.3-11.8-.3v45.1h-53v-45h-24z" style="fill:#fff" transform="matrix(.24528 0 0 .24662 -47.37 -17.2)"/></svg>
